src/assets/icons/thumbs-up-outline.svg

<svg width="24" height="24" viewBox="0 0 24 24" fill="none" xmlns="http://www.w3.org/2000/svg">
<path d="M8.97933 19.75C8.32355 17.2252 8.32355 14.5748 8.97933 12.05M6.82591 12.05H8.51285C8.79652 12.05 9.05358 11.8871 9.16879 11.6343L11.6948 6.09169C11.7895 5.88391 12.0008 5.75 12.234 5.75C12.8055 5.75 13.1784 5.92088 13.4687 6.30782C13.541 6.40415 13.5771 6.45231 13.6911 6.77868C13.7593 6.97381 13.825 7.47299 13.8097 7.67911C13.7841 8.02387 13.6971 8.24044 13.5232 8.67357L12.9759 10.0367C12.9536 10.0923 12.9425 10.12 12.9292 10.1992C12.9229 10.2365 12.9197 10.3741 12.9243 10.4117C12.9339 10.4914 12.9247 10.465 12.9284 10.4756C13.0246 10.7515 13.2926 10.95 13.6081 10.95L17.2364 10.65C18.5562 10.65 19.5655 11.7972 19.3648 13.0693L18.9783 15.5193L18.5918 17.9693C18.4301 18.9938 17.5262 19.75 16.4634 19.75H6.82591C4.05803 19.75 4.05803 12.05 6.82591 12.05Z" stroke="#314158" stroke-width="1.5" stroke-linecap="round" stroke-linejoin="round"/>
</svg>

<svg fill="none" viewBox="0 0 24 24"><path stroke="currentColor" stroke-linecap="round" stroke-linejoin="round" stroke-width="1.5" d="M8.98 19.75a15.3 15.3 0 0 1 0-7.7m-2.154 0h1.687c.284 0 .54-.163.656-.416l2.526-5.542a.59.59 0 0 1 .539-.342c.572 0 .944.17 1.235.558.072.096.108.144.222.47.068.196.134.695.119.901-.026.345-.113.561-.287.995l-.547 1.363a.6.6 0 0 0-.047.162c-.006.037-.01.175-.005.213.01.08 0 .053.004.064a.72.72 0 0 0 .68.474l3.628-.3c1.32 0 2.33 1.147 2.129 2.42l-.387 2.45-.386 2.45c-.162 1.024-1.066 1.78-2.129 1.78H6.826c-2.768 0-2.768-7.7 0-7.7"/></svg>
